X: 575
P: Longways for as many as will
M: 6/8
L: 1/8
K: G
V: 1
c |\
c |\
c/d/ec edc | B/c/dB dcB | A/B/cA BAG | F/G/AF D2c |\
V: 2 clef=bass middle=d
z |\
g3 B2c | d3 fed | g3 d2f | g2c def |\
g3 b3 | d'3 ^c'ac' | d'2g a2A | d3- d2 :|
z |\
c3 a3 | B3 g3 | A2f g2c | d3- def |\
g3 B2c | d3 e2f | g2c d2D | G3- G2 |]

